www/assets/icons/mobile_friendly.svg

<svg width="24" height="24" viewBox="0 0 24 24" xmlns="http://www.w3.org/2000/svg" fill='currentColor'><path d="M18.905 1H8.90497C7.80497 1 6.90497 1.9 6.90497 3V6H8.90497V4H18.905V20H8.90497V18H6.90497V21C6.90497 22.1 7.80497 23 8.90497 23H18.905C20.005 23 20.905 22.1 20.905 21V3C20.905 1.9 20.005 1 18.905 1ZM6.91497 13.47L4.36497 10.92L3.09497 12.19L6.90497 16L14.095 8.81L12.825 7.54L6.91497 13.47Z"/></svg>

<svg xmlns="http://www.w3.org/2000/svg" width="24" height="24" viewBox="0 0 24 24" fill='currentColor'><path d="M18.905 1h-10c-1.1 0-2 .9-2 2v3h2V4h10v16h-10v-2h-2v3c0 1.1.9 2 2 2h10c1.1 0 2-.9 2-2V3c0-1.1-.9-2-2-2M6.915 13.47l-2.55-2.55-1.27 1.27L6.905 16l7.19-7.19-1.27-1.27z"/></svg>
